assets/icons/qvision/laptop_chromebook.svg

<svg xmlns="http://www.w3.org/2000/svg" height="24" viewBox="0 0 24 24" width="24"><path d="M0 0h24v24H0z" fill="none"/><path d="M22 18V3H2v15H0v2h24v-2h-2zm-8 0h-4v-1h4v1zm6-3H4V5h16v10z"/></svg>

<svg width="24" height="24" viewBox="0 0 24 24" fill="none" xmlns="http://www.w3.org/2000/svg">
<g clip-path="url(#clip0_147_3014)">
<path d="M22 18V3H2V18H0V20H24V18H22ZM14 18H10V17H14V18ZM20 15H4V5H20V15Z" fill="#323232"/>
</g>
<defs>
<clipPath id="clip0_147_3014">
<rect width="24" height="24" fill="white"/>
</clipPath>
</defs>
</svg>
